X: 30401
T: SMITH'S REEL
C:
%R: reel
B: Elias Howe "The Musician's Companion" Part 3 1844 p.40 #1
S: http://imslp.org/wiki/The_Musician's_Companion_(Howe,_Elias)
S: https://archive.org/stream/firstthirdpartof03howe/#page/66/mode/1up
Z: 2016 John Chambers <jc:trillian.mit.edu>
M: 2/4
L: 1/16
K: F
% - - - - - - - - - - - - - - - - - - - - - - - - -
C2 |\
(3FFF AF c2(Ac) | defd dcBA | (Bd).G.B (Ac).F.A | GABG FEDC |\
(3FFF (AF) c2(Ac) | defd dcBA | (Bd).G.B (Ac)fc | dBGE F2 :|
|: c2 |\
{g}fefg afcf | (dc).d.e (fc).A.c | {g}fefg afcf | dfeg f3c |\
{g}fefg afcf | (dc).d.e (fc).A.F | FAcf dBGE | F2A2F2 :|
% - - - - - - - - - - - - - - - - - - - - - - - - -


